files/resources/svgs/general/o-banknotes.svg

<svg width="24" height="24" viewBox="0 0 24 24" fill="none" xmlns="http://www.w3.org/2000/svg">
<path d="M2.25 18.75C7.71719 18.75 13.0136 19.4812 18.0468 20.8512C18.7738 21.0491 19.5 20.5086 19.5 19.7551V18.75M3.75 4.5V5.25C3.75 5.66421 3.41421 6 3 6H2.25M2.25 6V5.625C2.25 5.00368 2.75368 4.5 3.375 4.5H20.25M2.25 6V15M20.25 4.5V5.25C20.25 5.66421 20.5858 6 21 6H21.75M20.25 4.5H20.625C21.2463 4.5 21.75 5.00368 21.75 5.625V15.375C21.75 15.9963 21.2463 16.5 20.625 16.5H20.25M21.75 15H21C20.5858 15 20.25 15.3358 20.25 15.75V16.5M20.25 16.5H3.75M3.75 16.5H3.375C2.75368 16.5 2.25 15.9963 2.25 15.375V15M3.75 16.5V15.75C3.75 15.3358 3.41421 15 3 15H2.25M15 10.5C15 12.1569 13.6569 13.5 12 13.5C10.3431 13.5 9 12.1569 9 10.5C9 8.84315 10.3431 7.5 12 7.5C13.6569 7.5 15 8.84315 15 10.5ZM18 10.5H18.0075V10.5075H18V10.5ZM6 10.5H6.0075V10.5075H6V10.5Z" stroke="#0F172A" stroke-width="1.5" stroke-linecap="round" stroke-linejoin="round"/>
</svg>

<svg xmlns="http://www.w3.org/2000/svg" fill="none" viewBox="0 0 24 24" stroke-width="1.5" stroke="currentColor" aria-hidden="true">
  <path stroke-linecap="round" stroke-linejoin="round" d="M2.25 18.75a60.07 60.07 0 0115.797 2.101c.727.198 1.453-.342 1.453-1.096V18.75M3.75 4.5v.75A.75.75 0 013 6h-.75m0 0v-.375c0-.621.504-1.125 1.125-1.125H20.25M2.25 6v9m18-10.5v.75c0 .414.336.75.75.75h.75m-1.5-1.5h.375c.621 0 1.125.504 1.125 1.125v9.75c0 .621-.504 1.125-1.125 1.125h-.375m1.5-1.5H21a.75.75 0 00-.75.75v.75m0 0H3.75m0 0h-.375a1.125 1.125 0 01-1.125-1.125V15m1.5 1.5v-.75A.75.75 0 003 15h-.75M15 10.5a3 3 0 11-6 0 3 3 0 016 0zm3 0h.008v.008H18V10.5zm-12 0h.008v.008H6V10.5z"/>
</svg>
